icons/magnifying_glass.svg

<svg width="48" height="48" viewBox="0 0 48 48" fill="none" xmlns="http://www.w3.org/2000/svg">
<path d="M18.7479 12.8156C17.0072 12.8833 15.4353 13.5043 14.5944 14.3454C14.2039 14.736 13.5707 14.736 13.1802 14.3455C12.7896 13.9551 12.7895 13.3219 13.18 12.9313C14.4774 11.6337 16.5888 10.8981 18.6701 10.8171C20.765 10.7356 23.0521 11.3092 24.6538 12.9112C25.0442 13.3017 25.0442 13.9349 24.6536 14.3254C24.2631 14.7159 23.6299 14.7158 23.2394 14.3253C22.1484 13.234 20.4749 12.7484 18.7479 12.8156Z" fill="black"/>
<path fill-rule="evenodd" clip-rule="evenodd" d="M27.3841 28.9355C25.1207 30.8475 22.1949 32 19 32C11.8203 32 6 26.1797 6 19C6 11.8203 11.8203 6 19 6C26.1797 6 32 11.8203 32 19C32 22.1949 30.8475 25.1207 28.9355 27.3841L31.1442 27L41.4278 37.2837C42.1907 38.0466 42.1907 39.2835 41.4278 40.0464L40.0464 41.4278C39.2835 42.1907 38.0466 42.1907 37.2837 41.4278L27 31.1442L27.3841 28.9355ZM30 19C30 25.0751 25.0751 30 19 30C12.9249 30 8 25.0751 8 19C8 12.9249 12.9249 8 19 8C25.0751 8 30 12.9249 30 19ZM37.2487 35.933L30.464 29.1483L29.3432 29.3432L29.1483 30.464L35.953 37.2687L37.2487 35.933ZM37.3674 38.6831L38.665 39.9808L39.9808 38.665L38.6631 37.3474L37.3674 38.6831Z" fill="black"/>
</svg>

<svg
  xmlns="http://www.w3.org/2000/svg"
  width="24"
  height="24"
  viewBox="0 0 24 24"
  fill="none"
  stroke="currentColor"
  stroke-width="2"
  stroke-linecap="round"
  stroke-linejoin="round"
>
  <path d="M18.748 12.816c-1.74.067-3.313.688-4.154 1.53a1 1 0 1 1-1.414-1.415c1.297-1.297 3.409-2.033 5.49-2.114 2.095-.081 4.382.492 5.984 2.094a1 1 0 0 1-1.415 1.414c-1.09-1.091-2.764-1.577-4.491-1.51" />
  <path
    fill-rule="evenodd"
    d="M27.384 28.936A12.95 12.95 0 0 1 19 32c-7.18 0-13-5.82-13-13S11.82 6 19 6s13 5.82 13 13c0 3.195-1.152 6.12-3.064 8.384L31.144 27l10.284 10.284c.763.763.763 2 0 2.762l-1.382 1.382c-.763.763-2 .763-2.762 0L27 31.144zM30 19c0 6.075-4.925 11-11 11S8 25.075 8 19 12.925 8 19 8s11 4.925 11 11m7.249 16.933-6.785-6.785-1.12.195-.196 1.121 6.805 6.805zm.118 2.75 1.298 1.298 1.316-1.316-1.318-1.318z"
    clip-rule="evenodd"
  />
</svg>
